X:1
T:Bill Harte's
C:Trad.
D:John Williams: Steam
M:2/2
K:G
|: DEGA BGGG | BGdB ABGE | DEGA Beed |1 BAAB A2GE :|2 BAAB A4
|: eAAA Bdeg | dGGF G2Bd |1 eAAA Bdeg | dBGB A4 :|2 eggg edea | gedB ABGE |